!!!OTL: Eng Hellecht um Dueref (1-17), S. 46f
!!!id: K0093
**kern
*clefG2
*k[f#]
*G:
{8d
=1
8d
8e
8f#
8g
8a
8b
=2
4.cc
4e}
=3
{8cc
=4
4b
8g
4a
16f#
16f#
=5
4.g}
4r
=6
{8d
=7
8d
8e
8f#
8g
8a
8b
=8
4.cc
4e}
=9
{8cc
=10
4b
8g
4a
16f#
16f#
=11
4.g}
4r
=12
{8a
=13
4a
8a
8a
8b
8cc#
=14
4.dd
4a}
=15
{8f#
=16
4a
8a
8g
8f#
8e
=17
4.d}
4r
=18
{8d
=19
4b
8b
4b
8b
=20
4.cc
4e}
=21
{8cc
=22
4b
8g
4a
8f#
=23
4.g}
4r
=24
{8b
=25
8dd
8cc
8b
8a
8g
8f#
=26
4.e
4cc}
=27
{8cc
=28
8b
8ee
8dd
8a
8cc
8b
=29
4.g}
4r
==
*-
!!!minrhy: 16
!!!meters: 6/8 ]  ZZ[10
!!!cut: Eng Hellecht um Dueref (1-17), S. 46f
!!!reg: Luxemburg
!!!trd: KINTZELE, Guillaume: An der Ucht, Bd. 1, Luxemburg 1926
!!!rhy1: X_  X_X_X_X_X_X_  X__.X__
!!!rhy2: X_  X__X_X__XX  X__.0__
!!!key: K0093  16  G 6/8 ]  ZZ[10
!!!mod: ACHTTONSKALA DUR ?]  AMBITUS[9
!!!kad: -61-612-5-6141
!!!akz: -514-6_321_-514-6_321_2252_21-5_334-6_321_52-64_321_
!!!fot: 'a__b__a__b__c__d__e__bv_f__bv_
!!!for: 'a__b__a__b__c__c__d__d__a__a__
!!!fok: '^a_\__^a_\__^__^d_^a_\__~a_^d_
!! PHRAS[AUFTAKTIG]
!!!fkt: Brautwerbung
!! KINTZELE
!! PR[47] 2K[3] 2G[0] 3K[3] 3G[0] 4A[11] 4Ü[0] 5A[0] 6K[0] 6G[3]
!! 7K[0] 7G[0] 8A[0] MEHR[0] SI[18] ABS[38] SR[3] SP[16]
!! ST[8] 2k[13] 2g[8] 3k[0] 3g[8] 4d[5] 4ü[0] 5d[0] 6k[0] 6g[0]
!! 7k[0] 7g[0] 8d[0] mehr[0] si[34] dm[-16] sr[21] sp[13]
!! 1F[50] 2F[45] 3F[5] 4F[0] LF[0] 2P[0] 3P[0] 4P[0] TRI[0] DF[3] AB[40]
!! TF[0] U3K[0] U3[0] U4[0] U4Ü[0] U5[0] U6K[0] U6[0] U7K[0] U7[0]
!! N1[0] N2K[0] N2[0] N3K[0] N3[0] N4[0] N4Ü[0] N5[31] N6K[0] N6[3]
!!!n7k: 0] N7[13] O1[36] O2K[0] O2[15] O3K[0] O3[3] HÖ[0
